X: 5703
T: Cabri
R: waltz
M: 3/4
K: Gmajor
DB, A,|G,2 B,3 D|D3 D B,G,|C2 E3 G|E3 G FE|
D2 F2 A2|A4 (3FED|G2 B3 c|B3 D B,A,|
G,2 B,3 D|D3 D B,G,|C2 E3 G|E3 G FE|
D2 F2 A2|B3 d (3ABA|G3 A GF|G3 A Bd|
g4 (3gag|f4 Ac|e3 g ed|B4 (3Bc^c|
d3 e dc|A3 F Ac|e3 g ed|B3 A Bd|
g4 (3gag|f4 Ac|e3 g ed|B4 (3Bc^c|
d3 e dc|A3 D FA|G3 A GF|G3||

